packages/astro-components-stencil/src/icons/business-center.svg

<svg xmlns="http://www.w3.org/2000/svg" viewBox="0 0 24 24"><g xmlns="http://www.w3.org/2000/svg" id="business-center" fill-rule="nonzero">
            <path d="M13 16h-2c-.55 0-1-.45-1-1H3.01v4c0 1.1.9 2 2 2H19c1.1 0 2-.9 2-2v-4h-7c0 .55-.45 1-1 1zm7-9h-4c0-2.21-1.79-4-4-4S8 4.79 8 7H4c-1.1 0-2 .9-2 2v3c0 1.11.89 2 2 2h6v-1c0-.55.45-1 1-1h2c.55 0 1 .45 1 1v1h6c1.1 0 2-.9 2-2V9c0-1.1-.9-2-2-2zM10 7c0-1.1.9-2 2-2s2 .9 2 2H9.99 10z"/>
        </g></svg>

<svg width="24" height="24" viewBox="0 0 24 24" fill="none" xmlns="http://www.w3.org/2000/svg">
<path fill-rule="evenodd" clip-rule="evenodd" d="M20 7H16C16 4.79 14.21 3 12 3C9.79 3 8 4.79 8 7H4C2.9 7 2 7.9 2 9V12C2 13.11 2.89 14 4 14H10V13C10 12.45 10.45 12 11 12H13C13.55 12 14 12.45 14 13V14H20C21.1 14 22 13.1 22 12V9C22 7.9 21.1 7 20 7ZM11 16C10.45 16 10 15.55 10 15H3.01V19C3.01 20.1 3.91 21 5.01 21H19C20.1 21 21 20.1 21 19V15H14C14 15.55 13.55 16 13 16H11ZM12 5C10.9 5 10 5.9 10 7H14C14 5.9 13.1 5 12 5Z" fill="black"/>
</svg>
